X:1
T:Title
%%score { ( 1 3 ) | ( 2 4 ) }
L:1/8
Q:1/4=100
M:6/8
K:Ab
V:1 treble nm="Grand Piano"
V:3 treble 
V:2 bass 
V:4 bass 
V:1
 [Ec]2 [DB] [CA]2 [EG] | [DF]2 [Fd] [Fd] [Ec]2 | [A,CA]2 [A,EG] [A,DF]2 [CFA] | %3
w: J.~J.~Jelley * * *|||
 [B,EG]2 [A,=DF] [G,E]3 | [Ec]2 [DB] [CA]2 [EG] | [DF]2 [Fd] [Fd] [Ec]2 | z3 z2 .c | A2 G [CA]3 | %8
w: |||||
 e=df e3 | c_cd =c3 | z3 .A3 |[M:7/8] [A,F]2 [=DB] B3 d |[M:3/4] z2 z .A3 | [A,F]2 [Fd][Fd] [Ec]2 | %14
w: ||||||
 [FB]2 [FA] [DF]2 c/B/ | A2 G [CA]3 |] %16
w: ||
V:2
 [A,,A,]2 [A,,E,] [A,,E,]2 [A,,A,] | [D,A,]2 [D,A,] [A,,A,] [A,,A,]2 | F,2 C, D,2 A,, | %3
 B,,2 B,, E,3 | [A,,A,]2 [A,,E,] [A,,E,]2 [C,A,] | [D,A,]2 [D,A,] [A,,A,] [A,,A,]2 | %6
 [D,A,]2 [D,A,] [D,A,]2 A,/B,/ | [E,CE]2 [E,B,D] [A,,A,]3 | [A,,CA][A,,_CA][A,,DA] [A,,=CA]3 | %9
 [A,E][A,=D][A,F][K:bass] [A,E]3 | [E,B,E][E,A,E][E,G,D] [A,D]CC, | %11
[M:7/8] D,2 [B,,A,] [E,G,E]3 [E,G,E] |[M:3/4] [A,E]2 [E,G,D][A,C] CC, | %13
 D,2 [D,A,][A,,A,] [A,,A,]2 | [D,A,]2 [D,A,] [D,A,]2 A,/B,/ | [E,CE]2 [E,B,D] [A,,A,]3 |] %16
V:3
 x6 | x6 | x6 | x6 | x6 | x6 | [FB]2 [FA] [DF]2 F/-[FB]/ | x6 | x6 | x6 | dcB z F[B,=EG] | %11
[M:7/8] x7 |[M:3/4] c2 .B2 F[B,=EG] | x6 | z2 z2 z F | x6 |] %16
V:4
 x6 | x6 | x6 | x6 | x6 | x6 | z3 z2 =D, | x6 | x6 | x3[K:bass] x3 | z3 .F,3 |[M:7/8] x7 | %12
[M:3/4] z2 z .F,3 | x6 | z2 z2 z =D, | x6 |] %16

